static/fund.svg

<svg width="104" height="104" viewBox="0 0 104 104" fill="none" xmlns="http://www.w3.org/2000/svg">
<path d="M74.75 61.738C74.75 62.169 74.9212 62.5823 75.226 62.8871C75.5307 63.1918 75.944 63.363 76.375 63.363C76.375 63.794 76.5462 64.2073 76.851 64.5121C77.1557 64.8168 77.569 64.988 78 64.988C78.431 64.988 78.8443 64.8168 79.1491 64.5121C79.4538 64.2073 79.625 63.794 79.625 63.363V62.9233C80.2446 62.566 80.729 62.0142 81.0028 61.3534C81.2767 60.6927 81.3247 59.96 81.1395 59.2692C80.9542 58.5784 80.5461 57.968 79.9784 57.5329C79.4107 57.0978 78.7152 56.8624 78 56.863H79.625C80.056 56.863 80.4693 56.6918 80.7741 56.3871C81.0788 56.0823 81.25 55.669 81.25 55.238C81.25 54.8071 81.0788 54.3937 80.7741 54.089C80.4693 53.7842 80.056 53.613 79.625 53.613C79.625 53.1821 79.4538 52.7687 79.1491 52.464C78.8443 52.1592 78.431 51.988 78 51.988C77.569 51.988 77.1557 52.1592 76.851 52.464C76.5462 52.7687 76.375 53.1821 76.375 53.613V54.0528C75.7554 54.4101 75.271 54.9619 74.9972 55.6226C74.7233 56.2834 74.6753 57.016 74.8606 57.7069C75.0458 58.3977 75.4539 59.0081 76.0216 59.4431C76.5893 59.8782 77.2848 60.1137 78 60.113H76.375C75.944 60.113 75.5307 60.2842 75.226 60.589C74.9212 60.8937 74.75 61.3071 74.75 61.738Z" fill="#1D4283"/>
<path d="M92.7333 67.1609L85.1896 67.1667L81.2778 66.9487C82.9682 65.2933 84.1753 63.1649 84.7575 60.8131C85.3398 58.4613 85.273 55.9835 84.5652 53.6701C83.8573 51.3568 82.5377 49.3038 80.7609 47.7518C78.9841 46.1998 76.8238 45.2131 74.5333 44.9074V43.2075C74.5333 42.7841 74.3735 42.378 74.0891 42.0786C73.8047 41.7792 73.4189 41.611 73.0167 41.611H71.5V38.418H73.0167C73.4189 38.418 73.8047 38.2498 74.0891 37.9504C74.3735 37.651 74.5333 37.245 74.5333 36.8216V32.7589C75.928 32.8711 77.3146 32.4514 78.4395 31.5764C79.5645 30.7014 80.3528 29.4295 80.6604 27.9931C80.968 26.5568 80.7744 25.0519 80.1149 23.7534C79.4554 22.4549 78.374 21.4496 77.0684 20.9211L41.7111 6.60637C41.4267 6.49122 41.1158 6.46897 40.8192 6.54251L15.2068 12.886L4.76667 12.8918C4.36442 12.8918 3.97865 13.06 3.69422 13.3594C3.40979 13.6588 3.25 14.0648 3.25 14.4882V35.2426C3.25 35.666 3.40979 36.0721 3.69422 36.3715C3.97865 36.6709 4.36442 36.8391 4.76667 36.8391L12.3104 36.8333L26 37.5959V43.2075C26 43.6309 26.1598 44.037 26.4442 44.3364C26.7286 44.6358 27.1144 44.804 27.5167 44.804H29.0333V47.997H27.5167C27.1144 47.997 26.7286 48.1652 26.4442 48.4646C26.1598 48.764 26 49.1701 26 49.5935V55.9795C26 56.4029 26.1598 56.8089 26.4442 57.1083C26.7286 57.4077 27.1144 57.5759 27.5167 57.5759H29.0333V60.7689H27.5167C27.1144 60.7689 26.7286 60.9371 26.4442 61.2365C26.1598 61.5359 26 61.942 26 62.3654V67.1549H24.4833C24.0811 67.1549 23.6953 67.3231 23.4109 67.6225C23.1265 67.9219 22.9667 68.328 22.9667 68.7514V71.2411C21.5719 71.1288 20.1854 71.5485 19.0604 72.4235C17.9354 73.2985 17.147 74.5704 16.8394 76.0068C16.5317 77.4432 16.7254 78.9481 17.3849 80.2466C18.0444 81.5451 19.1258 82.5504 20.4314 83.0789L55.7887 97.3936C56.0731 97.5088 56.384 97.531 56.6806 97.4575L82.2932 91.114L92.7333 91.1082C93.1356 91.1082 93.5213 90.94 93.8058 90.6406C94.0902 90.3412 94.25 89.9352 94.25 89.5118V68.7574C94.25 68.334 94.0902 67.9279 93.8058 67.6285C93.5213 67.3291 93.1356 67.1609 92.7333 67.1609ZM73.0167 47.997C75.1746 47.996 77.2627 48.8023 78.9082 50.272C80.5536 51.7416 81.6494 53.779 81.9998 56.0204C82.3503 58.2618 81.9326 60.5613 80.8214 62.5086C79.7101 64.4558 77.9777 65.924 75.9332 66.651L69.206 66.2762C67.3223 65.3615 65.7919 63.7967 64.8686 61.8412C63.9452 59.8856 63.6842 57.6567 64.1289 55.5237C64.5735 53.3907 65.6972 51.4817 67.3135 50.1128C68.9299 48.7439 70.9421 47.9974 73.0167 47.997ZM50.2667 54.383V51.19H62.5156C61.9633 52.1895 61.5433 53.2638 61.2672 54.383H50.2667ZM61.2672 60.7689H53.3V57.5759H60.8833C60.8832 58.653 61.0122 59.7258 61.2672 60.7689ZM50.2667 41.611V38.418H68.4667V41.611H50.2667ZM50.2667 30.4356V35.2251H43.0271C43.1508 34.94 43.2496 34.6437 43.3222 34.3398C43.639 32.9993 43.4376 31.5813 42.7623 30.397C42.087 29.2126 40.9929 28.3586 39.7201 28.0223L35.9342 27.0257L42.7825 24.1422L59.8873 28.8391H51.7833C51.3811 28.8391 50.9953 29.0073 50.7109 29.3067C50.4265 29.6061 50.2667 30.0122 50.2667 30.4356ZM47.2333 38.418V41.611H29.0333V38.418H47.2333ZM32.0667 44.804H50.2667V47.997H32.0667V44.804ZM50.2667 57.5759V60.7689H32.0667V57.5759H50.2667ZM54.0614 70.3479C53.9442 71.4572 54.1695 72.5768 54.7041 73.5409H47.2333V70.3479H54.0614ZM60.652 76.7338L61.5651 76.9743L54.7168 79.8588L43.3408 76.7348L60.652 76.7338ZM50.2667 67.1549V63.9619H62.505C62.8984 64.6797 63.3573 65.3554 63.8751 65.9795L59.2264 65.72C58.557 65.6868 57.8882 65.7968 57.2604 66.0433C56.6326 66.2899 56.0588 66.6679 55.5737 67.1545L50.2667 67.1549ZM53.3 47.997V44.804H71.5V44.9074C69.0889 45.2264 66.8251 46.3031 65.0041 47.997H53.3ZM71.5 35.2251H53.3V32.0321H71.5V35.2251ZM12.35 33.6404L6.28333 33.6449V16.0835L15.3833 16.0789C15.5001 16.079 15.6165 16.0647 15.7301 16.0364L41.0584 9.76343L75.9797 23.9012C76.6445 24.1716 77.1859 24.6994 77.493 25.3764C77.8002 26.0534 77.8498 26.8284 77.6317 27.5426C77.4136 28.2569 76.9443 28.8563 76.3199 29.2182C75.6956 29.58 74.9634 29.6768 74.2734 29.4889L43.068 20.9199C42.7543 20.834 42.4228 20.8559 42.1218 20.9824L30.9104 25.703L24.8528 24.1089C24.4637 24.0096 24.0531 24.0763 23.7106 24.2945C23.368 24.5126 23.1213 24.8645 23.0242 25.2733C22.9271 25.6822 22.9875 26.1148 23.1923 26.477C23.397 26.8391 23.7295 27.1014 24.1172 27.2065L38.987 31.1195C39.4485 31.2406 39.8508 31.5382 40.1154 31.9542C40.3801 32.3702 40.4883 32.875 40.4189 33.3703C40.3496 33.8656 40.1077 34.3161 39.7403 34.6341C39.3729 34.9521 38.9063 35.1149 38.4312 35.0908C38.4312 35.0908 12.3771 33.6404 12.35 33.6404ZM29.0333 51.19H47.2333V54.383H29.0333V51.19ZM29.0333 63.9619H47.2333V67.1549H29.0333V63.9619ZM26 70.3479H44.2V73.5409H31.7131L26 71.9721V70.3479ZM91.2167 87.9161L82.1167 87.9211C81.9999 87.921 81.8835 87.9353 81.7699 87.9636L56.4416 94.2366L21.5203 80.0982C20.8548 79.8282 20.3126 79.3004 20.005 78.623C19.6975 77.9456 19.6478 77.17 19.8661 76.4553C20.0845 75.7406 20.5545 75.1409 21.1795 74.7793C21.8046 74.4176 22.5374 74.3215 23.2277 74.5105L54.4331 83.0795C54.7468 83.1656 55.0784 83.1437 55.3793 83.017L66.5907 78.2964L72.6483 79.8905C73.0374 79.9898 73.448 79.9231 73.7906 79.7049C74.1331 79.4868 74.3799 79.135 74.477 78.7261C74.5741 78.3172 74.5136 77.8846 74.3089 77.5224C74.1041 77.1603 73.7716 76.898 73.3839 76.7929L58.5141 72.8799C58.0526 72.7588 57.6504 72.4613 57.3857 72.0452C57.1211 71.6292 57.0129 71.1244 57.0822 70.6291C57.1515 70.1338 57.3934 69.6833 57.7608 69.3653C58.1282 69.0473 58.5949 68.8845 59.07 68.9086L85.0692 70.3569C85.0963 70.3585 91.2161 70.3545 91.2161 70.3545L91.2167 87.9161Z" fill="#1D4283"/>
</svg>

<svg width="104" height="104" fill="none" xmlns="http://www.w3.org/2000/svg"><path d="M74.75 61.738a1.625 1.625 0 0 0 1.625 1.625 1.625 1.625 0 1 0 3.25 0v-.44A3.247 3.247 0 0 0 78 56.863h1.625a1.625 1.625 0 0 0 0-3.25 1.625 1.625 0 0 0-3.25 0v.44A3.247 3.247 0 0 0 78 60.113h-1.625a1.625 1.625 0 0 0-1.625 1.625z" fill="#1D4283"/><path d="m92.733 67.16-7.543.007-3.912-.218a12.929 12.929 0 0 0 3.48-6.136c.582-2.352.515-4.83-.193-7.143-.708-2.313-2.027-4.366-3.804-5.918a11.851 11.851 0 0 0-6.228-2.845v-1.7c0-.423-.16-.829-.444-1.128a1.48 1.48 0 0 0-1.072-.468H71.5v-3.193h1.517a1.48 1.48 0 0 0 1.072-.468c.285-.299.444-.705.444-1.128v-4.063a5.619 5.619 0 0 0 3.906-1.183 6.166 6.166 0 0 0 2.221-3.583 6.419 6.419 0 0 0-.545-4.24c-.66-1.298-1.741-2.303-3.047-2.832L41.711 6.606a1.445 1.445 0 0 0-.892-.063l-25.612 6.343-10.44.006a1.48 1.48 0 0 0-1.073.467 1.64 1.64 0 0 0-.444 1.13v20.754c0 .423.16.83.444 1.128.285.3.67.468 1.073.468l7.543-.006 13.69.763v5.612c0 .423.16.829.444 1.128.285.3.67.468 1.073.468h1.516v3.193h-1.516a1.48 1.48 0 0 0-1.073.468A1.64 1.64 0 0 0 26 49.593v6.386c0 .424.16.83.444 1.13.285.299.67.467 1.073.467h1.516v3.193h-1.516a1.48 1.48 0 0 0-1.073.468A1.64 1.64 0 0 0 26 62.364v4.79h-1.517a1.48 1.48 0 0 0-1.072.468 1.64 1.64 0 0 0-.444 1.128v2.49a5.619 5.619 0 0 0-3.907 1.183 6.166 6.166 0 0 0-2.22 3.583 6.418 6.418 0 0 0 .545 4.24c.66 1.298 1.74 2.303 3.046 2.832L55.79 97.394c.284.115.595.137.892.063l25.612-6.343 10.44-.006a1.48 1.48 0 0 0 1.073-.467c.284-.3.444-.706.444-1.13V68.758c0-.423-.16-.83-.444-1.129a1.48 1.48 0 0 0-1.073-.467zM73.017 47.998c2.158-.001 4.246.805 5.891 2.275 1.646 1.47 2.741 3.507 3.092 5.748.35 2.242-.067 4.541-1.179 6.489-1.11 1.947-2.843 3.415-4.888 4.142l-6.727-.375c-1.884-.914-3.414-2.48-4.337-4.435a10.035 10.035 0 0 1-.74-6.317c.444-2.133 1.568-4.042 3.184-5.411a8.821 8.821 0 0 1 5.704-2.116zm-22.75 6.386V51.19h12.249a13.08 13.08 0 0 0-1.249 3.193h-11zm11 6.386H53.3v-3.193h7.583c0 1.077.13 2.15.384 3.193zm-11-19.158v-3.193h18.2v3.193h-18.2zm0-11.175v4.79h-7.24c.124-.286.223-.582.295-.886a5.452 5.452 0 0 0-.56-3.943c-.675-1.184-1.77-2.038-3.042-2.375l-3.786-.996 6.849-2.884 17.104 4.697h-8.104a1.48 1.48 0 0 0-1.072.468 1.64 1.64 0 0 0-.444 1.129zm-3.034 7.982v3.193h-18.2v-3.193h18.2zm-15.166 6.386h18.2v3.193h-18.2v-3.193zm18.2 12.772v3.193h-18.2v-3.193h18.2zm3.794 12.772a5.422 5.422 0 0 0 .643 3.193h-7.47v-3.193h6.827zm6.591 6.386.913.24-6.848 2.885-11.376-3.124 17.311-.001zm-10.385-9.58v-3.192h12.238c.393.718.852 1.393 1.37 2.017l-4.649-.259a4.733 4.733 0 0 0-1.966.323 4.928 4.928 0 0 0-1.686 1.111h-5.307zM53.3 47.998v-3.193h18.2v.103c-2.411.32-4.675 1.396-6.496 3.09H53.3zm18.2-12.772H53.3v-3.193h18.2v3.193zM12.35 33.64l-6.067.005V16.083l9.1-.004c.117 0 .234-.014.347-.043l25.328-6.273L75.98 23.901c.664.27 1.206.798 1.513 1.475.307.677.357 1.452.139 2.167a2.91 2.91 0 0 1-1.312 1.675 2.67 2.67 0 0 1-2.047.27L43.068 20.92a1.449 1.449 0 0 0-.946.062L30.91 25.703l-6.057-1.594c-.39-.1-.8-.033-1.142.185-.343.219-.59.57-.687.98a1.67 1.67 0 0 0 .168 1.203c.205.362.538.624.925.73l14.87 3.912a1.92 1.92 0 0 1 1.128.835 2.1 2.1 0 0 1 .304 1.416c-.07.496-.311.946-.679 1.264-.367.318-.834.48-1.309.457 0 0-26.054-1.45-26.081-1.45zm16.683 17.55h18.2v3.193h-18.2V51.19zm0 12.772h18.2v3.193h-18.2v-3.193zM26 70.348h18.2v3.193H31.713L26 71.972v-1.624zm65.217 17.568-9.1.005a1.43 1.43 0 0 0-.347.043l-25.328 6.273L21.52 80.098a2.854 2.854 0 0 1-1.515-1.475 3.083 3.083 0 0 1-.139-2.168 2.91 2.91 0 0 1 1.314-1.676 2.67 2.67 0 0 1 2.048-.269l31.205 8.57c.314.086.645.064.946-.063l11.212-4.72 6.057 1.594c.39.099.8.032 1.143-.186.342-.218.589-.57.686-.979a1.67 1.67 0 0 0-.168-1.204 1.527 1.527 0 0 0-.925-.73l-14.87-3.912a1.92 1.92 0 0 1-1.128-.835 2.102 2.102 0 0 1-.304-1.416c.07-.495.311-.946.679-1.264.367-.318.834-.48 1.309-.456l26 1.448c.026.002 6.146-.002 6.146-.002v17.561z" fill="#1D4283"/></svg>
